; generated by PrusaSlicer 2.3.0+win64 on 2021-01-17 at 08:03:14 UTC


;
;

;
;
; 

; external perimeters extrusion width = 0.45mm
; perimeters extrusion width = 0.45mm
; infill extrusion width = 0.45mm
; solid infill extrusion width = 0.45mm
; top infill extrusion width = 0.40mm
; first layer extrusion width = 0.42mm

M73 P0 R64
M201 X1250 Y1250 Z400 E5000 ; sets maximum accelerations, mm/sec^2
M203 X180 Y180 Z12 E80 ; sets maximum feedrates, mm/sec
M204 P1250 R1250 T1250 ; sets acceleration (P, T) and retract acceleration (R), mm/sec^2
M205 X8.00 Y8.00 Z2.00 E10.00 ; sets the jerk limits, mm/sec
M205 S0 T0 ; sets the minimum extruding and travel feed rate, mm/sec
M107
;TYPE:Custom
G90 ; use absolute coordinates
M83 ; extruder relative mode
M104 S170 ; set extruder temp for bed leveling
M140 S60 ; set bed temp
M109 R170 ; wait for bed leveling temp
M190 S60 ; wait for bed temp
G28 ; home all without mesh bed level
G29 ; mesh bed leveling 
M104 S215 ; set extruder temp
G92 E0.0
G1 Y-2.0 X179 F2400
G1 Z3 F720
M109 S215 ; wait for extruder temp

; intro line
G1 X170 F1000
G1 Z0.2 F720
G1 X110.0 E8.0 F900
G1 X40.0 E10.0 F700
G92 E0.0

M221 S95 ; set flow
G21 ; set units to millimeters
G90 ; use absolute coordinates
M83 ; use relative distances for extrusion
M900 K0.2 ; Filament gcode LA 1.5
; ; Filament gcode LA 1.0
;LAYER_CHANGE
;Z:0.2
;HEIGHT:0.2
;BEFORE_LAYER_CHANGE
G92 E0.0
;0.2


M73 P0 R63
G1 Z0.200 F9000.000
;AFTER_LAYER_CHANGE
;0.2
G1 E-3.20000 F4200.000
G1 Z0.400 F9000.000
G1 X44.128 Y47.538
G1 Z0.200
G1 E3.20000 F2400.000
M204 S800
;TYPE:Skirt
;WIDTH:0.42
G1 F1200.000
G1 X44.984 Y47.373 E0.02731
G1 X135.004 Y47.373 E2.82252
G1 X135.902 Y47.551 E0.02872
G1 X136.664 Y48.053 E0.02860
G1 X137.182 Y48.808 E0.02872
G1 X137.377 Y49.703 E0.02872
G1 X137.377 Y130.273 E2.52620
G1 X137.172 Y131.215 E0.03024
G1 X136.610 Y131.999 E0.03024
G1 X135.872 Y132.462 E0.02731
G1 X135.016 Y132.627 E0.02731
G1 X44.996 Y132.627 E2.82252
G1 X44.508 Y132.576 E0.01538
G1 X44.042 Y132.425 E0.01538
G1 X43.615 Y132.182 E0.01538
G1 X43.251 Y131.860 E0.01526
G1 X42.790 Y131.125 E0.02720
G1 X42.623 Y130.270 E0.02731
G1 X42.623 Y49.746 E2.52477
G1 X42.674 Y49.258 E0.01538
G1 X42.825 Y48.792 E0.01538
G1 X43.068 Y48.365 E0.01538
G1 X43.390 Y48.001 E0.01526
G1 X44.078 Y47.570 E0.02543
M204 S1250
; printing object tank.stl id:0 copy 0
G1 E-2.24000 F4200.000
;WIPE_START
G1 F7200.000
G1 X44.984 Y47.373 E-0.51390
G1 X45.702 Y47.373 E-0.39810
;WIPE_END
G1 E-0.04800 F4200.000
G1 Z0.400 F9000.000
G1 X113.146 Y88.653
G1 Z0.200
G1 E3.20000 F2400.000
M204 S800
;TYPE:Perimeter
G1 F1200.000
G1 X113.467 Y88.297 E0.01502
G1 X113.854 Y88.016 E0.01502
G1 X114.292 Y87.821 E0.01502
G1 X114.760 Y87.721 E0.01502
G1 X115.240 Y87.721 E0.01502
G1 X115.708 Y87.821 E0.01502
G1 X116.146 Y88.016 E0.01502
G1 X116.533 Y88.297 E0.01502
G1 X116.854 Y88.653 E0.01502
G1 X117.093 Y89.068 E0.01502
G1 X117.241 Y89.524 E0.01502
G1 X117.291 Y90.000 E0.01502
G1 X117.241 Y90.476 E0.01502
G1 X117.093 Y90.932 E0.01502
G1 X116.854 Y91.347 E0.01502
G1 X116.533 Y91.703 E0.01502
G1 X116.146 Y91.984 E0.01502
G1 X115.708 Y92.179 E0.01502
G1 X115.240 Y92.279 E0.01502
G1 X114.760 Y92.279 E0.01502
G1 X114.292 Y92.179 E0.01502
G1 X113.854 Y91.984 E0.01502
G1 X113.467 Y91.703 E0.01502
G1 X113.146 Y91.347 E0.01502
G1 X112.907 Y90.932 E0.01502
G1 X112.759 Y90.476 E0.01502
G1 X112.709 Y90.000 E0.01502
G1 X112.759 Y89.524 E0.01502
G1 X112.907 Y89.068 E0.01502
G1 X113.116 Y88.705 E0.01314
M204 S1250
G1 X113.443 Y88.894 F9000.000
M204 S800
;TYPE:External perimeter
G1 F1200.000
G1 X113.720 Y88.579 E0.01316
G1 X114.044 Y88.344 E0.01254
G1 X114.409 Y88.181 E0.01253
G1 X114.800 Y88.098 E0.01253
G1 X115.200 Y88.098 E0.01254
G1 X115.591 Y88.181 E0.01253
G1 X115.956 Y88.344 E0.01253
G1 X116.280 Y88.579 E0.01254
G1 X116.547 Y88.876 E0.01253
G1 X116.747 Y89.222 E0.01253
G1 X116.870 Y89.602 E0.01253
G1 X116.912 Y90.000 E0.01253
G1 X116.870 Y90.398 E0.01253
G1 X116.747 Y90.778 E0.01253
G1 X116.547 Y91.124 E0.01253
G1 X116.280 Y91.421 E0.01253
G1 X115.956 Y91.656 E0.01254
G1 X115.591 Y91.819 E0.01253
G1 X115.200 Y91.902 E0.01253
G1 X114.800 Y91.902 E0.01254
G1 X114.409 Y91.819 E0.01253
G1 X114.044 Y91.656 E0.01253
G1 X113.720 Y91.421 E0.01254
G1 X113.453 Y91.124 E0.01253
G1 X113.253 Y90.778 E0.01253
G1 X113.130 Y90.398 E0.01253
G1 X113.088 Y90.000 E0.01253
G1 X113.130 Y89.602 E0.01253
G1 X113.253 Y89.222 E0.01253
G1 X113.413 Y88.946 E0.01001
M204 S1250
G1 X113.277 Y88.530 F9000.000
G1 E-2.24000 F4200.000
;WIPE_START
G1 F7200.000
G1 X113.720 Y88.579 E-0.26527
G1 X114.044 Y88.344 E-0.22156
G1 X114.409 Y88.181 E-0.22155
G1 X114.769 Y88.105 E-0.20363
;WIPE_END
G1 E-0.04800 F4200.000
G1 Z0.400 F9000.000
G1 X79.354 Y118.153
G1 Z0.200
G1 E3.20000 F2400.000
M204 S800
;TYPE:Perimeter
G1 F1200.000
G1 X79.593 Y118.568 E0.01502
G1 X79.741 Y119.024 E0.01502
G1 X79.791 Y119.500 E0.01502
G1 X79.741 Y119.976 E0.01502
G1 X79.593 Y120.432 E0.01502
G1 X79.354 Y120.847 E0.01502
G1 X79.033 Y121.203 E0.01502
G1 X78.646 Y121.484 E0.01502
G1 X78.208 Y121.679 E0.01502
G1 X77.740 Y121.779 E0.01502
G1 X77.260 Y121.779 E0.01502
G1 X76.792 Y121.679 E0.01502
G1 X76.354 Y121.484 E0.01502
G1 X75.967 Y121.203 E0.01502
G1 X75.646 Y120.847 E0.01502
G1 X75.407 Y120.432 E0.01502
G1 X75.259 Y119.976 E0.01502
G1 X75.209 Y119.500 E0.01502
G1 X75.259 Y119.024 E0.01502
G1 X75.407 Y118.568 E0.01502
G1 X75.646 Y118.153 E0.01502
G1 X75.967 Y117.797 E0.01502
G1 X76.354 Y117.516 E0.01502
G1 X76.792 Y117.321 E0.01502
G1 X77.260 Y117.221 E0.01502
G1 X77.740 Y117.221 E0.01502
G1 X78.208 Y117.321 E0.01502
G1 X78.646 Y117.516 E0.01502
G1 X79.033 Y117.797 E0.01502
G1 X79.314 Y118.109 E0.01314
M204 S1250
G1 X79.033 Y118.361 F9000.000
M204 S800
;TYPE:External perimeter
G1 F1200.000
G1 X79.247 Y118.722 E0.01316
G1 X79.370 Y119.102 E0.01253
G1 X79.412 Y119.500 E0.01254
G1 X79.370 Y119.898 E0.01254
G1 X79.247 Y120.278 E0.01253
G1 X79.047 Y120.624 E0.01254
G1 X78.780 Y120.921 E0.01253
G1 X78.456 Y121.156 E0.01253
G1 X78.091 Y121.319 E0.01254
G1 X77.700 Y121.402 E0.01253
G1 X77.300 Y121.402 E0.01254
G1 X76.909 Y121.319 E0.01253
G1 X76.544 Y121.156 E0.01254
G1 X76.220 Y120.921 E0.01253
G1 X75.953 Y120.624 E0.01253
G1 X75.753 Y120.278 E0.01254
G1 X75.630 Y119.898 E0.01253
G1 X75.588 Y119.500 E0.01254
G1 X75.630 Y119.102 E0.01254
G1 X75.753 Y118.722 E0.01253
G1 X75.953 Y118.376 E0.01254
G1 X76.220 Y118.079 E0.01253
M73 P1 R63
G1 X76.544 Y117.844 E0.01253
G1 X76.909 Y117.681 E0.01254
G1 X77.300 Y117.598 E0.01253
G1 X77.700 Y117.598 E0.01254
G1 X78.091 Y117.681 E0.01253
G1 X78.456 Y117.844 E0.01254
G1 X78.780 Y118.079 E0.01253
G1 X78.993 Y118.316 E0.01001
M204 S1250
G1 X79.431 Y118.316 F9000.000
G1 E-2.24000 F4200.000
;WIPE_START
G1 F7200.000
G1 X79.247 Y118.722 E-0.26527
G1 X79.370 Y119.102 E-0.22151
G1 X79.412 Y119.500 E-0.22157
G1 X79.374 Y119.865 E-0.20365
;WIPE_END
G1 E-0.04800 F4200.000
G1 Z0.400 F9000.000
G1 X77.740 Y62.779
G1 Z0.200
G1 E3.20000 F2400.000
M204 S800
;TYPE:Perimeter
G1 F1200.000
G1 X77.260 Y62.779 E0.01502
G1 X76.792 Y62.679 E0.01502
G1 X76.354 Y62.484 E0.01502
G1 X75.967 Y62.203 E0.01502
G1 X75.646 Y61.847 E0.01502
G1 X75.407 Y61.432 E0.01502
G1 X75.259 Y60.976 E0.01502
G1 X75.209 Y60.500 E0.01502
G1 X75.259 Y60.024 E0.01502
G1 X75.407 Y59.568 E0.01502
G1 X75.646 Y59.153 E0.01502
G1 X75.967 Y58.797 E0.01502
G1 X76.354 Y58.516 E0.01502
G1 X76.792 Y58.321 E0.01502
G1 X77.260 Y58.221 E0.01502
G1 X77.740 Y58.221 E0.01502
G1 X78.208 Y58.321 E0.01502
G1 X78.646 Y58.516 E0.01502
G1 X79.033 Y58.797 E0.01502
G1 X79.354 Y59.153 E0.01502
G1 X79.593 Y59.568 E0.01502
G1 X79.741 Y60.024 E0.01502
G1 X79.791 Y60.500 E0.01502
G1 X79.741 Y60.976 E0.01502
G1 X79.593 Y61.432 E0.01502
G1 X79.354 Y61.847 E0.01502
G1 X79.033 Y62.203 E0.01502
G1 X78.646 Y62.484 E0.01502
G1 X78.208 Y62.679 E0.01502
G1 X77.798 Y62.766 E0.01314
M204 S1250
G1 X77.720 Y62.398 F9000.000
M204 S800
;TYPE:External perimeter
G1 F1200.000
G1 X77.300 Y62.402 E0.01316
G1 X76.909 Y62.319 E0.01253
G1 X76.544 Y62.156 E0.01254
G1 X76.220 Y61.921 E0.01253
G1 X75.953 Y61.624 E0.01253
G1 X75.753 Y61.278 E0.01254
G1 X75.630 Y60.898 E0.01253
G1 X75.588 Y60.500 E0.01254
G1 X75.630 Y60.102 E0.01254
G1 X75.753 Y59.722 E0.01253
G1 X75.953 Y59.376 E0.01254
G1 X76.220 Y59.079 E0.01253
G1 X76.544 Y58.844 E0.01253
G1 X76.909 Y58.681 E0.01254
G1 X77.300 Y58.598 E0.01253
G1 X77.700 Y58.598 E0.01254
G1 X78.091 Y58.681 E0.01253
G1 X78.456 Y58.844 E0.01254
G1 X78.780 Y59.079 E0.01253
G1 X79.047 Y59.376 E0.01253
G1 X79.247 Y59.722 E0.01254
G1 X79.370 Y60.102 E0.01253
G1 X79.412 Y60.500 E0.01254
G1 X79.370 Y60.898 E0.01254
G1 X79.247 Y61.278 E0.01253
G1 X79.047 Y61.624 E0.01254
G1 X78.780 Y61.921 E0.01253
G1 X78.456 Y62.156 E0.01253
G1 X78.091 Y62.319 E0.01254
G1 X77.779 Y62.385 E0.01001
M204 S1250
G1 X77.560 Y62.764 F9000.000
G1 E-2.24000 F4200.000
;WIPE_START
G1 F7200.000
G1 X77.300 Y62.402 E-0.26528
G1 X76.909 Y62.319 E-0.22154
G1 X76.544 Y62.156 E-0.22155
G1 X76.247 Y61.940 E-0.20363
;WIPE_END
G1 E-0.04800 F4200.000
G1 Z0.400 F9000.000
G1 X45.787 Y50.787
G1 Z0.200
G1 E3.20000 F2400.000
M204 S800
;TYPE:Perimeter
G1 F1200.000
G1 X134.213 Y50.787 E2.77253
G1 X134.213 Y129.213 E2.45899
G1 X45.787 Y129.213 E2.77253
G1 X45.787 Y50.847 E2.45711
M204 S1250
G1 X45.410 Y50.410 F9000.000
M204 S800
;TYPE:External perimeter
G1 F1200.000
G1 X134.590 Y50.410 E2.79618
G1 X134.590 Y129.590 E2.48263
G1 X45.410 Y129.590 E2.79618
G1 X45.410 Y50.470 E2.48075
M204 S1250
G1 X45.798 Y50.506 F9000.000
G1 E-2.24000 F4200.000
;WIPE_START
G1 F7200.000
G1 X47.056 Y50.469 E-0.91200
;WIPE_END
G1 E-0.04800 F4200.000
G1 Z0.400 F9000.000
M73 P1 R62
G1 X134.100 Y51.663
G1 Z0.200
G1 E3.20000 F2400.000
M204 S800
;TYPE:Solid infill
;WIDTH:0.420212
G1 F1200.000
G1 X133.507 Y51.070 E0.02631
G1 X132.973 Y51.070 E0.01674
G1 X133.930 Y52.027 E0.04246
G1 X133.930 Y52.560 E0.01674
G1 X132.440 Y51.070 E0.06613
G1 X131.906 Y51.070 E0.01674
G1 X133.930 Y53.094 E0.08980
G1 X133.930 Y53.628 E0.01674
G1 X131.372 Y51.070 E0.11347
M73 P2 R62
G1 X130.839 Y51.070 E0.01674
G1 X133.930 Y54.161 E0.13715
G1 X133.930 Y54.695 E0.01674
G1 X130.305 Y51.070 E0.16082
G1 X129.772 Y51.070 E0.01674
G1 X133.930 Y55.228 E0.18449
G1 X133.930 Y55.762 E0.01674
G1 X129.238 Y51.070 E0.20816
G1 X128.705 Y51.070 E0.01674
G1 X133.930 Y56.295 E0.23184
G1 X133.930 Y56.829 E0.01674
G1 X128.171 Y51.070 E0.25551
G1 X127.637 Y51.070 E0.01674
G1 X133.930 Y57.363 E0.27918
G1 X133.930 Y57.896 E0.01674
G1 X127.104 Y51.070 E0.30286
G1 X126.570 Y51.070 E0.01674
G1 X133.930 Y58.430 E0.32653
G1 X133.930 Y58.963 E0.01674
G1 X126.037 Y51.070 E0.35020
G1 X125.503 Y51.070 E0.01674
G1 X133.930 Y59.497 E0.37387
G1 X133.930 Y60.030 E0.01674
G1 X124.970 Y51.070 E0.39755
G1 X124.436 Y51.070 E0.01674
G1 X133.930 Y60.564 E0.42122
G1 X133.930 Y61.098 E0.01674
G1 X123.902 Y51.070 E0.44489
G1 X123.369 Y51.070 E0.01674
G1 X133.930 Y61.631 E0.46857
G1 X133.930 Y62.165 E0.01674
G1 X122.835 Y51.070 E0.49224
G1 X122.302 Y51.070 E0.01674
G1 X133.930 Y62.698 E0.51591
G1 X133.930 Y63.232 E0.01674
G1 X121.768 Y51.070 E0.53958
G1 X121.235 Y51.070 E0.01674
G1 X133.930 Y63.765 E0.56326
G1 X133.930 Y64.299 E0.01674
G1 X120.701 Y51.070 E0.58693
G1 X120.167 Y51.070 E0.01674
G1 X133.930 Y64.833 E0.61060
G1 X133.930 Y65.366 E0.01674
G1 X119.634 Y51.070 E0.63427
G1 X119.100 Y51.070 E0.01674
G1 X133.930 Y65.900 E0.65795
G1 X133.930 Y66.433 E0.01674
G1 X118.567 Y51.070 E0.68162
G1 X118.033 Y51.070 E0.01674
G1 X133.930 Y66.967 E0.70529
G1 X133.930 Y67.500 E0.01674
G1 X117.500 Y51.070 E0.72897
G1 X116.966 Y51.070 E0.01674
G1 X133.930 Y68.034 E0.75264
G1 X133.930 Y68.568 E0.01674
G1 X116.432 Y51.070 E0.77631
G1 X115.899 Y51.070 E0.01674
G1 X133.930 Y69.101 E0.79998
G1 X133.930 Y69.635 E0.01674
G1 X115.365 Y51.070 E0.82366
G1 X114.832 Y51.070 E0.01674
G1 X133.930 Y70.168 E0.84733
G1 X133.930 Y70.702 E0.01674
G1 X114.298 Y51.070 E0.87100
G1 X113.765 Y51.070 E0.01674
G1 X133.930 Y71.235 E0.89468
G1 X133.930 Y71.769 E0.01674
G1 X113.231 Y51.070 E0.91835
G1 X112.697 Y51.070 E0.01674
G1 X133.930 Y72.303 E0.94202
G1 X133.930 Y72.836 E0.01674
G1 X112.164 Y51.070 E0.96569
G1 X111.630 Y51.070 E0.01674
G1 X133.930 Y73.370 E0.98937
G1 X133.930 Y73.903 E0.01674
G1 X111.097 Y51.070 E1.01304
G1 X110.563 Y51.070 E0.01674
G1 X133.930 Y74.437 E1.03671
G1 X133.930 Y74.970 E0.01674
G1 X110.030 Y51.070 E1.06038
M73 P3 R62
G1 X109.496 Y51.070 E0.01674
G1 X133.930 Y75.504 E1.08406
G1 X133.930 Y76.038 E0.01674
G1 X108.962 Y51.070 E1.10773
G1 X108.429 Y51.070 E0.01674
G1 X133.930 Y76.571 E1.13140
G1 X133.930 Y77.105 E0.01674
G1 X107.895 Y51.070 E1.15508
G1 X107.362 Y51.070 E0.01674
G1 X133.930 Y77.638 E1.17875
G1 X133.930 Y78.172 E0.01674
G1 X106.828 Y51.070 E1.20242
G1 X106.295 Y51.070 E0.01674
G1 X133.930 Y78.705 E1.22609
G1 X133.930 Y79.239 E0.01674
G1 X105.761 Y51.070 E1.24977
G1 X105.227 Y51.070 E0.01674
G1 X133.930 Y79.773 E1.27344
G1 X133.930 Y80.306 E0.01674
G1 X104.694 Y51.070 E1.29711
M73 P3 R61
G1 X104.160 Y51.070 E0.01674
G1 X133.930 Y80.840 E1.32079
G1 X133.930 Y81.373 E0.01674
G1 X103.627 Y51.070 E1.34446
G1 X103.093 Y51.070 E0.01674
G1 X133.930 Y81.907 E1.36813
G1 X133.930 Y82.440 E0.01674
G1 X102.560 Y51.070 E1.39180
G1 X102.026 Y51.070 E0.01674
G1 X133.930 Y82.974 E1.41548
G1 X133.930 Y83.508 E0.01674
G1 X101.492 Y51.070 E1.43915
G1 X100.959 Y51.070 E0.01674
G1 X133.930 Y84.041 E1.46282
G1 X133.930 Y84.575 E0.01674
G1 X100.425 Y51.070 E1.48649
M73 P4 R61
G1 X99.892 Y51.070 E0.01674
G1 X133.930 Y85.108 E1.51017
G1 X133.930 Y85.642 E0.01674
G1 X99.358 Y51.070 E1.53384
G1 X98.825 Y51.070 E0.01674
G1 X133.930 Y86.175 E1.55751
G1 X133.930 Y86.709 E0.01674
G1 X98.291 Y51.070 E1.58119
G1 X97.757 Y51.070 E0.01674
G1 X133.930 Y87.243 E1.60486
G1 X133.930 Y87.776 E0.01674
G1 X97.224 Y51.070 E1.62853
G1 X96.690 Y51.070 E0.01674
G1 X133.930 Y88.310 E1.65220
G1 X133.930 Y88.843 E0.01674
G1 X96.157 Y51.070 E1.67588
G1 X95.623 Y51.070 E0.01674
G1 X133.930 Y89.377 E1.69955
G1 X133.930 Y89.910 E0.01674
G1 X95.090 Y51.070 E1.72322
G1 X94.556 Y51.070 E0.01674
G1 X133.930 Y90.444 E1.74690
G1 X133.930 Y90.978 E0.01674
G1 X94.022 Y51.070 E1.77057
G1 X93.489 Y51.070 E0.01674
G1 X133.930 Y91.511 E1.79424
G1 X133.930 Y92.045 E0.01674
G1 X92.955 Y51.070 E1.81791
M73 P5 R61
G1 X92.422 Y51.070 E0.01674
G1 X133.930 Y92.578 E1.84159
G1 X133.930 Y93.112 E0.01674
G1 X91.888 Y51.070 E1.86526
M73 P5 R60
G1 X91.355 Y51.070 E0.01674
G1 X133.930 Y93.645 E1.88893
G1 X133.930 Y94.179 E0.01674
G1 X90.821 Y51.070 E1.91260
G1 X90.287 Y51.070 E0.01674
G1 X133.930 Y94.713 E1.93628
G1 X133.930 Y95.246 E0.01674
G1 X89.754 Y51.070 E1.95995
G1 X89.220 Y51.070 E0.01674
G1 X133.930 Y95.780 E1.98362
G1 X133.930 Y96.313 E0.01674
G1 X88.687 Y51.070 E2.00730
G1 X88.153 Y51.070 E0.01674
G1 X133.930 Y96.847 E2.03097
G1 X133.930 Y97.380 E0.01674
G1 X87.620 Y51.070 E2.05464
G1 X87.086 Y51.070 E0.01674
G1 X133.930 Y97.914 E2.07831
G1 X133.930 Y98.448 E0.01674
G1 X86.552 Y51.070 E2.10199
M73 P6 R60
G1 X86.019 Y51.070 E0.01674
G1 X133.930 Y98.981 E2.12566
G1 X133.930 Y99.515 E0.01674
G1 X85.485 Y51.070 E2.14933
G1 X84.952 Y51.070 E0.01674
G1 X133.930 Y100.048 E2.17301
G1 X133.930 Y100.582 E0.01674
G1 X84.418 Y51.070 E2.19668
G1 X83.885 Y51.070 E0.01674
G1 X133.930 Y101.115 E2.22035
G1 X133.930 Y101.649 E0.01674
G1 X83.351 Y51.070 E2.24402
G1 X82.817 Y51.070 E0.01674
G1 X133.930 Y102.183 E2.26770
G1 X133.930 Y102.716 E0.01674
G1 X82.284 Y51.070 E2.29137
M73 P6 R59
G1 X81.750 Y51.070 E0.01674
G1 X133.930 Y103.250 E2.31504
G1 X133.930 Y103.783 E0.01674
G1 X81.217 Y51.070 E2.33871
G1 X80.683 Y51.070 E0.01674
G1 X133.930 Y104.317 E2.36239
M73 P7 R59
G1 X133.930 Y104.850 E0.01674
G1 X80.150 Y51.070 E2.38606
G1 X79.616 Y51.070 E0.01674
G1 X133.930 Y105.384 E2.40973
G1 X133.930 Y105.918 E0.01674
G1 X117.524 Y89.512 E0.72787
G1 X117.576 Y90.000 E0.01540
G1 X117.567 Y90.088 E0.00276
G1 X133.930 Y106.451 E0.72600
G1 X133.930 Y106.985 E0.01674
G1 X117.510 Y90.565 E0.72850
G1 X117.379 Y90.967 E0.01328
G1 X133.930 Y107.518 E0.73431
G1 X133.930 Y108.052 E0.01674
G1 X117.197 Y91.318 E0.74240
