; generated by PrusaSlicer 2.3.0+win64 on 2021-01-17 at 17:02:18 UTC


;
;

;
;
; 

; external perimeters extrusion width = 0.45mm
; perimeters extrusion width = 0.45mm
; infill extrusion width = 0.45mm
; solid infill extrusion width = 0.45mm
; top infill extrusion width = 0.40mm
; first layer extrusion width = 0.42mm

M73 P0 R242
M201 X1250 Y1250 Z400 E5000 ; sets maximum accelerations, mm/sec^2
M203 X180 Y180 Z12 E80 ; sets maximum feedrates, mm/sec
M204 P1250 R1250 T1250 ; sets acceleration (P, T) and retract acceleration (R), mm/sec^2
M205 X8.00 Y8.00 Z2.00 E10.00 ; sets the jerk limits, mm/sec
M205 S0 T0 ; sets the minimum extruding and travel feed rate, mm/sec
M107
;TYPE:Custom
G90 ; use absolute coordinates
M83 ; extruder relative mode
M104 S170 ; set extruder temp for bed leveling
M140 S60 ; set bed temp
M109 R170 ; wait for bed leveling temp
M190 S60 ; wait for bed temp
G28 ; home all without mesh bed level
G29 ; mesh bed leveling 
M104 S215 ; set extruder temp
G92 E0.0
G1 Y-2.0 X179 F2400
G1 Z3 F720
M109 S215 ; wait for extruder temp

; intro line
G1 X170 F1000
G1 Z0.2 F720
G1 X110.0 E8.0 F900
G1 X40.0 E10.0 F700
G92 E0.0

M221 S95 ; set flow
G21 ; set units to millimeters
G90 ; use absolute coordinates
M83 ; use relative distances for extrusion
M900 K0.2 ; Filament gcode LA 1.5
; ; Filament gcode LA 1.0
;LAYER_CHANGE
;Z:0.2
;HEIGHT:0.2
;BEFORE_LAYER_CHANGE
G92 E0.0
;0.2


G1 Z0.200 F9000.000
;AFTER_LAYER_CHANGE
;0.2
G1 E-3.20000 F4200.000
G1 Z0.400 F9000.000
G1 X178.406 Y42.802
G1 Z0.200
G1 E3.20000 F2400.000
M204 S800
;TYPE:Skirt
;WIDTH:0.42
G1 F1200.000
G1 X179.172 Y43.311 E0.02884
G1 X179.688 Y44.072 E0.02884
G1 X179.877 Y44.972 E0.02884
G1 X179.877 Y135.034 E2.82383
G1 X179.783 Y135.662 E0.01989
G1 X179.527 Y136.242 E0.01989
G1 X179.127 Y136.733 E0.01989
G1 X178.610 Y137.102 E0.01989
G1 X178.074 Y137.307 E0.01799
G1 X177.505 Y137.377 E0.01799
G1 X2.489 Y137.377 E5.48751
G1 X1.857 Y137.288 E0.02000
G1 X1.268 Y137.033 E0.02012
G1 X0.769 Y136.629 E0.02012
G1 X0.398 Y136.110 E0.02000
G1 X0.193 Y135.574 E0.01799
G1 X0.123 Y135.009 E0.01787
G1 X0.123 Y44.973 E2.82300
G1 X0.216 Y44.342 E0.02000
G1 X0.471 Y43.762 E0.01989
G1 X0.873 Y43.267 E0.02000
G1 X1.390 Y42.898 E0.01989
G1 X1.926 Y42.693 E0.01799
G1 X2.495 Y42.623 E0.01799
G1 X177.504 Y42.623 E5.48727
G1 X178.347 Y42.791 E0.02696
M204 S1250
; printing object tank.stl id:0 copy 0
G1 E-2.24000 F4200.000
;WIPE_START
G1 F7200.000
G1 X179.172 Y43.311 E-0.54061
G1 X179.548 Y43.865 E-0.37139
;WIPE_END
G1 E-0.04800 F4200.000
G1 Z0.400 F9000.000
G1 X96.533 Y117.797
G1 Z0.200
G1 E3.20000 F2400.000
M204 S800
;TYPE:Perimeter
G1 F1200.000
G1 X96.854 Y118.153 E0.01502
G1 X97.093 Y118.568 E0.01502
G1 X97.241 Y119.024 E0.01502
G1 X97.291 Y119.500 E0.01502
G1 X97.241 Y119.976 E0.01502
G1 X97.093 Y120.432 E0.01502
G1 X96.854 Y120.847 E0.01502
G1 X96.533 Y121.203 E0.01502
G1 X96.146 Y121.484 E0.01502
G1 X95.708 Y121.679 E0.01502
G1 X95.240 Y121.779 E0.01502
G1 X94.760 Y121.779 E0.01502
G1 X94.292 Y121.679 E0.01502
G1 X93.854 Y121.484 E0.01502
G1 X93.467 Y121.203 E0.01502
G1 X93.146 Y120.847 E0.01502
G1 X92.907 Y120.432 E0.01502
G1 X92.759 Y119.976 E0.01502
G1 X92.709 Y119.500 E0.01502
G1 X92.759 Y119.024 E0.01502
G1 X92.907 Y118.568 E0.01502
G1 X93.146 Y118.153 E0.01502
G1 X93.467 Y117.797 E0.01502
G1 X93.854 Y117.516 E0.01502
G1 X94.292 Y117.321 E0.01502
G1 X94.760 Y117.221 E0.01502
G1 X95.240 Y117.221 E0.01502
G1 X95.708 Y117.321 E0.01502
G1 X96.146 Y117.516 E0.01502
G1 X96.485 Y117.762 E0.01314
M204 S1250
G1 X96.263 Y118.067 F9000.000
M204 S800
;TYPE:External perimeter
G1 F1200.000
G1 X96.547 Y118.376 E0.01316
G1 X96.747 Y118.722 E0.01254
G1 X96.870 Y119.102 E0.01253
G1 X96.912 Y119.500 E0.01254
G1 X96.870 Y119.898 E0.01254
G1 X96.747 Y120.278 E0.01253
G1 X96.547 Y120.624 E0.01254
G1 X96.280 Y120.921 E0.01253
G1 X95.956 Y121.156 E0.01253
G1 X95.591 Y121.319 E0.01253
G1 X95.200 Y121.402 E0.01254
G1 X94.800 Y121.402 E0.01253
G1 X94.409 Y121.319 E0.01254
G1 X94.044 Y121.156 E0.01253
G1 X93.720 Y120.921 E0.01253
G1 X93.453 Y120.624 E0.01253
G1 X93.253 Y120.278 E0.01254
G1 X93.130 Y119.898 E0.01253
G1 X93.088 Y119.500 E0.01254
G1 X93.130 Y119.102 E0.01254
G1 X93.253 Y118.722 E0.01253
G1 X93.453 Y118.376 E0.01254
G1 X93.720 Y118.079 E0.01253
G1 X94.044 Y117.844 E0.01253
G1 X94.409 Y117.681 E0.01253
G1 X94.800 Y117.598 E0.01254
G1 X95.200 Y117.598 E0.01253
G1 X95.591 Y117.681 E0.01254
G1 X95.956 Y117.844 E0.01253
G1 X96.215 Y118.032 E0.01001
M204 S1250
G1 X96.643 Y117.940 F9000.000
G1 E-2.24000 F4200.000
;WIPE_START
G1 F7200.000
G1 X96.547 Y118.376 E-0.26527
G1 X96.747 Y118.722 E-0.22156
G1 X96.870 Y119.102 E-0.22151
G1 X96.909 Y119.468 E-0.20366
;WIPE_END
G1 E-0.04800 F4200.000
G1 Z0.400 F9000.000
G1 X130.646 Y91.347
G1 Z0.200
G1 E3.20000 F2400.000
M204 S800
;TYPE:Perimeter
M73 P0 R241
G1 F1200.000
G1 X130.407 Y90.932 E0.01502
G1 X130.259 Y90.476 E0.01502
G1 X130.209 Y90.000 E0.01502
G1 X130.259 Y89.524 E0.01502
G1 X130.407 Y89.068 E0.01502
G1 X130.646 Y88.653 E0.01502
G1 X130.967 Y88.297 E0.01502
G1 X131.354 Y88.016 E0.01502
G1 X131.792 Y87.821 E0.01502
G1 X132.260 Y87.721 E0.01502
G1 X132.740 Y87.721 E0.01502
G1 X133.208 Y87.821 E0.01502
G1 X133.646 Y88.016 E0.01502
G1 X134.033 Y88.297 E0.01502
G1 X134.354 Y88.653 E0.01502
G1 X134.593 Y89.068 E0.01502
G1 X134.741 Y89.524 E0.01502
G1 X134.791 Y90.000 E0.01502
G1 X134.741 Y90.476 E0.01502
G1 X134.593 Y90.932 E0.01502
G1 X134.354 Y91.347 E0.01502
G1 X134.033 Y91.703 E0.01502
G1 X133.646 Y91.984 E0.01502
G1 X133.208 Y92.179 E0.01502
G1 X132.740 Y92.279 E0.01502
G1 X132.260 Y92.279 E0.01502
G1 X131.792 Y92.179 E0.01502
G1 X131.354 Y91.984 E0.01502
G1 X130.967 Y91.703 E0.01502
G1 X130.686 Y91.391 E0.01314
M204 S1250
G1 X130.967 Y91.139 F9000.000
M204 S800
;TYPE:External perimeter
G1 F1200.000
G1 X130.753 Y90.778 E0.01316
G1 X130.630 Y90.398 E0.01253
G1 X130.588 Y90.000 E0.01253
G1 X130.630 Y89.602 E0.01253
G1 X130.753 Y89.222 E0.01253
G1 X130.953 Y88.876 E0.01253
G1 X131.220 Y88.579 E0.01253
G1 X131.544 Y88.344 E0.01254
G1 X131.909 Y88.181 E0.01253
G1 X132.300 Y88.098 E0.01253
G1 X132.700 Y88.098 E0.01254
G1 X133.091 Y88.181 E0.01253
G1 X133.456 Y88.344 E0.01253
G1 X133.780 Y88.579 E0.01254
G1 X134.047 Y88.876 E0.01253
G1 X134.247 Y89.222 E0.01253
G1 X134.370 Y89.602 E0.01253
G1 X134.412 Y90.000 E0.01253
G1 X134.370 Y90.398 E0.01253
G1 X134.247 Y90.778 E0.01253
G1 X134.047 Y91.124 E0.01253
G1 X133.780 Y91.421 E0.01253
G1 X133.456 Y91.656 E0.01254
G1 X133.091 Y91.819 E0.01253
G1 X132.700 Y91.902 E0.01253
G1 X132.300 Y91.902 E0.01254
G1 X131.909 Y91.819 E0.01253
G1 X131.544 Y91.656 E0.01253
G1 X131.220 Y91.421 E0.01254
G1 X131.007 Y91.184 E0.01001
M204 S1250
G1 X130.569 Y91.184 F9000.000
G1 E-2.24000 F4200.000
;WIPE_START
G1 F7200.000
G1 X130.753 Y90.778 E-0.26527
G1 X130.630 Y90.398 E-0.22153
G1 X130.588 Y90.000 E-0.22155
G1 X130.626 Y89.635 E-0.20365
;WIPE_END
G1 E-0.04800 F4200.000
G1 Z0.400 F9000.000
G1 X146.709 Y90.000
G1 Z0.200
G1 E3.20000 F2400.000
M204 S800
;TYPE:Perimeter
G1 F1200.000
G1 X146.944 Y87.756 E0.07074
G1 X147.642 Y85.611 E0.07074
G1 X148.770 Y83.657 E0.07074
G1 X150.279 Y81.980 E0.07074
G1 X152.104 Y80.654 E0.07074
G1 X154.165 Y79.737 E0.07074
G1 X156.372 Y79.268 E0.07074
G1 X158.628 Y79.268 E0.07074
G1 X160.835 Y79.737 E0.07074
G1 X162.896 Y80.654 E0.07074
G1 X164.721 Y81.980 E0.07074
G1 X166.230 Y83.657 E0.07074
G1 X167.358 Y85.611 E0.07074
G1 X168.056 Y87.756 E0.07074
G1 X168.291 Y90.000 E0.07074
G1 X168.056 Y92.244 E0.07074
G1 X167.358 Y94.389 E0.07074
G1 X166.230 Y96.343 E0.07074
G1 X164.721 Y98.020 E0.07074
G1 X162.896 Y99.346 E0.07074
G1 X160.835 Y100.263 E0.07074
G1 X158.628 Y100.732 E0.07074
G1 X156.372 Y100.732 E0.07074
G1 X154.165 Y100.263 E0.07074
G1 X152.104 Y99.346 E0.07074
G1 X150.279 Y98.020 E0.07074
G1 X148.770 Y96.343 E0.07074
G1 X147.642 Y94.389 E0.07074
G1 X146.944 Y92.244 E0.07074
G1 X146.715 Y90.060 E0.06885
M204 S1250
G1 X147.090 Y90.020 F9000.000
M204 S800
;TYPE:External perimeter
G1 F1200.000
G1 X147.315 Y87.835 E0.06888
G1 X147.988 Y85.765 E0.06825
G1 X149.076 Y83.880 E0.06825
G1 X150.533 Y82.262 E0.06825
G1 X152.294 Y80.983 E0.06825
G1 X154.282 Y80.097 E0.06825
G1 X156.412 Y79.645 E0.06825
G1 X158.588 Y79.645 E0.06825
G1 X160.718 Y80.097 E0.06825
G1 X162.706 Y80.983 E0.06825
G1 X164.467 Y82.262 E0.06825
G1 X165.924 Y83.880 E0.06825
G1 X167.012 Y85.765 E0.06825
G1 X167.685 Y87.835 E0.06825
G1 X167.912 Y90.000 E0.06825
G1 X167.685 Y92.165 E0.06825
G1 X167.012 Y94.235 E0.06825
G1 X165.924 Y96.120 E0.06825
G1 X164.467 Y97.738 E0.06825
G1 X162.706 Y99.017 E0.06825
G1 X160.718 Y99.903 E0.06825
G1 X158.588 Y100.355 E0.06825
G1 X156.412 Y100.355 E0.06825
G1 X154.282 Y99.903 E0.06825
G1 X152.294 Y99.017 E0.06825
G1 X150.533 Y97.738 E0.06825
G1 X149.076 Y96.120 E0.06825
G1 X147.988 Y94.235 E0.06825
G1 X147.315 Y92.165 E0.06825
G1 X147.096 Y90.080 E0.06573
M204 S1250
G1 X146.743 Y89.821 F9000.000
G1 E-2.24000 F4200.000
;WIPE_START
G1 F7200.000
G1 X147.256 Y88.442 E-0.91200
;WIPE_END
G1 E-0.04800 F4200.000
G1 Z0.400 F9000.000
G1 X97.093 Y61.432
G1 Z0.200
G1 E3.20000 F2400.000
M204 S800
;TYPE:Perimeter
G1 F1200.000
G1 X96.854 Y61.847 E0.01502
G1 X96.533 Y62.203 E0.01502
G1 X96.146 Y62.484 E0.01502
G1 X95.708 Y62.679 E0.01502
G1 X95.240 Y62.779 E0.01502
G1 X94.760 Y62.779 E0.01502
G1 X94.292 Y62.679 E0.01502
G1 X93.854 Y62.484 E0.01502
G1 X93.467 Y62.203 E0.01502
G1 X93.146 Y61.847 E0.01502
G1 X92.907 Y61.432 E0.01502
G1 X92.759 Y60.976 E0.01502
G1 X92.709 Y60.500 E0.01502
G1 X92.759 Y60.024 E0.01502
G1 X92.907 Y59.568 E0.01502
G1 X93.146 Y59.153 E0.01502
G1 X93.467 Y58.797 E0.01502
G1 X93.854 Y58.516 E0.01502
G1 X94.292 Y58.321 E0.01502
G1 X94.760 Y58.221 E0.01502
G1 X95.240 Y58.221 E0.01502
G1 X95.708 Y58.321 E0.01502
G1 X96.146 Y58.516 E0.01502
G1 X96.533 Y58.797 E0.01502
G1 X96.854 Y59.153 E0.01502
G1 X97.093 Y59.568 E0.01502
G1 X97.241 Y60.024 E0.01502
G1 X97.291 Y60.500 E0.01502
G1 X97.241 Y60.976 E0.01502
G1 X97.112 Y61.375 E0.01314
M204 S1250
G1 X96.753 Y61.258 F9000.000
M204 S800
;TYPE:External perimeter
G1 F1200.000
G1 X96.547 Y61.624 E0.01316
G1 X96.280 Y61.921 E0.01253
G1 X95.956 Y62.156 E0.01253
G1 X95.591 Y62.319 E0.01253
G1 X95.200 Y62.402 E0.01254
G1 X94.800 Y62.402 E0.01253
G1 X94.409 Y62.319 E0.01254
G1 X94.044 Y62.156 E0.01253
G1 X93.720 Y61.921 E0.01253
G1 X93.453 Y61.624 E0.01253
G1 X93.253 Y61.278 E0.01254
G1 X93.130 Y60.898 E0.01253
G1 X93.088 Y60.500 E0.01254
G1 X93.130 Y60.102 E0.01254
G1 X93.253 Y59.722 E0.01253
G1 X93.453 Y59.376 E0.01254
G1 X93.720 Y59.079 E0.01253
G1 X94.044 Y58.844 E0.01253
G1 X94.409 Y58.681 E0.01253
G1 X94.800 Y58.598 E0.01254
G1 X95.200 Y58.598 E0.01253
G1 X95.591 Y58.681 E0.01254
G1 X95.956 Y58.844 E0.01253
G1 X96.280 Y59.079 E0.01253
G1 X96.547 Y59.376 E0.01253
G1 X96.747 Y59.722 E0.01254
G1 X96.870 Y60.102 E0.01253
G1 X96.912 Y60.500 E0.01254
G1 X96.870 Y60.898 E0.01254
G1 X96.772 Y61.201 E0.01001
M204 S1250
G1 X96.991 Y61.580 F9000.000
G1 E-2.24000 F4200.000
;WIPE_START
G1 F7200.000
G1 X96.547 Y61.624 E-0.26529
G1 X96.280 Y61.921 E-0.22154
G1 X95.956 Y62.156 E-0.22151
G1 X95.620 Y62.306 E-0.20367
;WIPE_END
G1 E-0.04800 F4200.000
G1 Z0.400 F9000.000
G1 X176.713 Y45.787
G1 Z0.200
G1 E3.20000 F2400.000
M204 S800
;TYPE:Perimeter
G1 F1200.000
G1 X176.713 Y134.213 E2.77253
G1 X3.287 Y134.213 E5.43765
G1 X3.287 Y45.787 E2.77253
G1 X176.653 Y45.787 E5.43576
M204 S1250
G1 X177.090 Y45.410 F9000.000
M204 S800
;TYPE:External perimeter
G1 F1200.000
G1 X177.090 Y134.590 E2.79618
G1 X2.910 Y134.590 E5.46129
G1 X2.910 Y45.410 E2.79618
G1 X177.030 Y45.410 E5.45941
M204 S1250
M73 P0 R240
G1 X176.947 Y45.784 F9000.000
G1 X176.600 Y46.663
M204 S800
;TYPE:Solid infill
;WIDTH:0.420247
G1 F1200.000
G1 X176.007 Y46.070 E0.02632
G1 X175.473 Y46.070 E0.01674
G1 X176.430 Y47.027 E0.04246
G1 X176.430 Y47.561 E0.01674
G1 X174.939 Y46.070 E0.06614
G1 X174.406 Y46.070 E0.01674
G1 X176.430 Y48.094 E0.08982
G1 X176.430 Y48.628 E0.01674
G1 X173.872 Y46.070 E0.11350
G1 X173.339 Y46.070 E0.01674
G1 X176.430 Y49.161 E0.13717
G1 X176.430 Y49.695 E0.01674
G1 X172.805 Y46.070 E0.16085
G1 X172.271 Y46.070 E0.01674
G1 X176.430 Y50.229 E0.18453
G1 X176.430 Y50.762 E0.01674
G1 X171.738 Y46.070 E0.20821
G1 X171.204 Y46.070 E0.01674
G1 X176.430 Y51.296 E0.23188
G1 X176.430 Y51.830 E0.01674
G1 X170.670 Y46.070 E0.25556
G1 X170.137 Y46.070 E0.01674
G1 X176.430 Y52.363 E0.27924
G1 X176.430 Y52.897 E0.01674
G1 X169.603 Y46.070 E0.30291
G1 X169.070 Y46.070 E0.01674
G1 X176.430 Y53.430 E0.32659
G1 X176.430 Y53.964 E0.01674
G1 X168.536 Y46.070 E0.35027
G1 X168.002 Y46.070 E0.01674
G1 X176.430 Y54.498 E0.37395
G1 X176.430 Y55.031 E0.01674
G1 X167.469 Y46.070 E0.39762
G1 X166.935 Y46.070 E0.01674
G1 X176.430 Y55.565 E0.42130
G1 X176.430 Y56.098 E0.01674
G1 X166.402 Y46.070 E0.44498
G1 X165.868 Y46.070 E0.01674
G1 X176.430 Y56.632 E0.46865
G1 X176.430 Y57.166 E0.01674
G1 X165.334 Y46.070 E0.49233
G1 X164.801 Y46.070 E0.01674
G1 X176.430 Y57.699 E0.51601
G1 X176.430 Y58.233 E0.01674
G1 X164.267 Y46.070 E0.53969
G1 X163.733 Y46.070 E0.01674
G1 X176.430 Y58.767 E0.56336
G1 X176.430 Y59.300 E0.01674
G1 X163.200 Y46.070 E0.58704
G1 X162.666 Y46.070 E0.01674
G1 X176.430 Y59.834 E0.61072
G1 X176.430 Y60.367 E0.01674
G1 X162.133 Y46.070 E0.63439
G1 X161.599 Y46.070 E0.01674
G1 X176.430 Y60.901 E0.65807
G1 X176.430 Y61.435 E0.01674
G1 X161.065 Y46.070 E0.68175
G1 X160.532 Y46.070 E0.01674
G1 X176.430 Y61.968 E0.70543
G1 X176.430 Y62.502 E0.01674
G1 X159.998 Y46.070 E0.72910
G1 X159.464 Y46.070 E0.01674
G1 X176.430 Y63.036 E0.75278
G1 X176.430 Y63.569 E0.01674
G1 X158.931 Y46.070 E0.77646
G1 X158.397 Y46.070 E0.01674
G1 X176.430 Y64.103 E0.80013
G1 X176.430 Y64.636 E0.01674
G1 X157.864 Y46.070 E0.82381
G1 X157.330 Y46.070 E0.01674
G1 X176.430 Y65.170 E0.84749
G1 X176.430 Y65.704 E0.01674
G1 X156.796 Y46.070 E0.87117
G1 X156.263 Y46.070 E0.01674
G1 X176.430 Y66.237 E0.89484
G1 X176.430 Y66.771 E0.01674
G1 X155.729 Y46.070 E0.91852
G1 X155.195 Y46.070 E0.01674
G1 X176.430 Y67.305 E0.94220
G1 X176.430 Y67.838 E0.01674
G1 X154.662 Y46.070 E0.96587
M73 P1 R240
G1 X154.128 Y46.070 E0.01674
G1 X176.430 Y68.372 E0.98955
G1 X176.430 Y68.905 E0.01674
G1 X153.595 Y46.070 E1.01323
G1 X153.061 Y46.070 E0.01674
G1 X176.430 Y69.439 E1.03691
G1 X176.430 Y69.973 E0.01674
G1 X152.527 Y46.070 E1.06058
G1 X151.994 Y46.070 E0.01674
G1 X176.430 Y70.506 E1.08426
G1 X176.430 Y71.040 E0.01674
G1 X151.460 Y46.070 E1.10794
G1 X150.927 Y46.070 E0.01674
G1 X176.430 Y71.573 E1.13161
G1 X176.430 Y72.107 E0.01674
G1 X150.393 Y46.070 E1.15529
G1 X149.859 Y46.070 E0.01674
G1 X176.430 Y72.641 E1.17897
G1 X176.430 Y73.174 E0.01674
G1 X149.326 Y46.070 E1.20265
G1 X148.792 Y46.070 E0.01674
G1 X176.430 Y73.708 E1.22632
G1 X176.430 Y74.242 E0.01674
G1 X148.258 Y46.070 E1.25000
M73 P1 R239
G1 X147.725 Y46.070 E0.01674
G1 X176.430 Y74.775 E1.27368
G1 X176.430 Y75.309 E0.01674
G1 X147.191 Y46.070 E1.29735
G1 X146.658 Y46.070 E0.01674
G1 X176.430 Y75.842 E1.32103
G1 X176.430 Y76.376 E0.01674
G1 X146.124 Y46.070 E1.34471
G1 X145.590 Y46.070 E0.01674
G1 X176.430 Y76.910 E1.36839
G1 X176.430 Y77.443 E0.01674
G1 X145.057 Y46.070 E1.39206
G1 X144.523 Y46.070 E0.01674
G1 X176.430 Y77.977 E1.41574
G1 X176.430 Y78.511 E0.01674
G1 X143.989 Y46.070 E1.43942
G1 X143.456 Y46.070 E0.01674
G1 X176.430 Y79.044 E1.46310
G1 X176.430 Y79.578 E0.01674
G1 X142.922 Y46.070 E1.48677
G1 X142.389 Y46.070 E0.01674
G1 X176.430 Y80.111 E1.51045
G1 X176.430 Y80.645 E0.01674
G1 X141.855 Y46.070 E1.53413
G1 X141.321 Y46.070 E0.01674
G1 X176.430 Y81.179 E1.55780
G1 X176.430 Y81.712 E0.01674
G1 X140.788 Y46.070 E1.58148
G1 X140.254 Y46.070 E0.01674
G1 X176.430 Y82.246 E1.60516
G1 X176.430 Y82.780 E0.01674
G1 X139.720 Y46.070 E1.62884
G1 X139.187 Y46.070 E0.01674
G1 X176.430 Y83.313 E1.65251
G1 X176.430 Y83.847 E0.01674
G1 X138.653 Y46.070 E1.67619
G1 X138.120 Y46.070 E0.01674
G1 X176.430 Y84.380 E1.69987
G1 X176.430 Y84.914 E0.01674
G1 X137.586 Y46.070 E1.72354
G1 X137.052 Y46.070 E0.01674
G1 X176.430 Y85.448 E1.74722
G1 X176.430 Y85.981 E0.01674
